actions/22/view-time-schedule-insert.svg

<svg xmlns="http://www.w3.org/2000/svg" viewBox="0 0 22 22">
  <defs id="defs3051">
<style type="text/css" id="current-color-scheme">.ColorScheme-Text {color:#fcfcfc;}</style>
  </defs>
 <path 
    style="fill:currentColor;fill-opacity:1;stroke:none" 
    d="m 3,3 c 0,0 0,10 0,13 0,3 3,3 3,3 h 8 V 18 H 6 C 6,18 4,18 4,16 4,14 4,7 4,7 h 14 v 7 h 1 V 3 H 17 V 6 H 15 V 3 H 7 V 6 H 5 V 3 Z m 2,5 v 3 h 1 v -1 h 4 v 1 h 1 V 8 H 10 V 9 H 6 V 8 Z m 3,4 v 3 h 1 v -1 h 4 v 1 h 1 v -3 h -1 v 1 H 9 v -1 z"
	class="ColorScheme-Text"
    />  
</svg>

<svg xmlns="http://www.w3.org/2000/svg" viewBox="0 0 22 22">
  <defs id="defs3051">
    <style type="text/css" id="current-color-scheme">
      .ColorScheme-Text {
        color:#eff0f1;
      }
      </style>
  </defs>
 <path 
    style="fill:currentColor;fill-opacity:1;stroke:none" 
    d="M 3 3 L 3 19 L 14 19 L 14 18 L 4 18 L 4 7 L 18 7 L 18 14 L 19 14 L 19 3 L 17 3 L 17 6 L 15 6 L 15 3 L 7 3 L 7 6 L 5 6 L 5 3 L 3 3 z M 5 8 L 5 11 L 6 11 L 6 10 L 10 10 L 10 11 L 11 11 L 11 8 L 10 8 L 10 9 L 6 9 L 6 8 L 5 8 z M 8 12 L 8 15 L 9 15 L 9 14 L 13 14 L 13 15 L 14 15 L 14 12 L 13 12 L 13 13 L 9 13 L 9 12 L 8 12 z "
	class="ColorScheme-Text"
    />  
</svg>
